svgs/thin/list-ol.svg

<svg xmlns="http://www.w3.org/2000/svg" viewBox="0 0 512 512"><!--! Font Awesome Pro 6.0.0-alpha3 by @fontawesome - https://fontawesome.com License - https://fontawesome.com/license (Commercial License) --><path d="M200 104h304C508.4 104 512 100.4 512 96s-3.594-8-8-8h-304C195.6 88 192 91.59 192 96S195.6 104 200 104zM31.13 224h97.75c4.406 0 8-3.578 8-8s-3.594-8-8-8H88V40c0-2.859-1.531-5.516-4-6.938C81.47 31.64 78.44 31.64 75.97 33.09L36.84 55.91C33.03 58.13 31.75 63.03 33.97 66.84c2.188 3.828 7.062 5.094 10.94 2.875L72 53.92V208H31.13c-4.406 0-8 3.578-8 8S26.72 224 31.13 224zM145.5 464H37.03l80.66-71.81c26.34-22.72 29.5-62.73 7.062-89.2C113.5 289.7 97.62 281.6 80.09 280.2C62.62 278.9 45.53 284.3 32.22 295.8L17.81 308.2c-3.344 2.891-3.719 7.938-.8438 11.28c2.938 3.359 7.967 3.734 11.28 .8438l14.41-12.41c10.06-8.641 23.03-12.77 36.19-11.77c13.25 1.047 25.22 7.141 33.72 17.17c17.06 20.14 14.72 49.45-5.406 66.83l-96.47 85.88c-2.5 2.203-3.344 5.719-2.156 8.812C9.719 477.1 12.69 480 15.1 480h129.5c4.406 0 8-3.578 8-8S149.9 464 145.5 464zM504 408h-304C195.6 408 192 411.6 192 416s3.594 8 8 8h304c4.406 0 8-3.594 8-8S508.4 408 504 408zM504 248h-304C195.6 248 192 251.6 192 256s3.594 8 8 8h304C508.4 264 512 260.4 512 256S508.4 248 504 248z"/></svg>

<svg xmlns="http://www.w3.org/2000/svg" viewBox="0 0 512 512"><!-- Font Awesome Pro 6.0.0-alpha2 by @fontawesome - https://fontawesome.com License - https://fontawesome.com/license (Commercial License) --><path d="M199.999 104H503.999C508.405 104 511.999 100.406 511.999 96S508.405 88 503.999 88H199.999C195.593 88 191.999 91.594 191.999 96S195.593 104 199.999 104ZM31.124 224H128.874C133.28 224 136.874 220.422 136.874 216S133.28 208 128.874 208H87.999V40C87.999 37.141 86.468 34.484 83.999 33.062C81.468 31.641 78.437 31.641 75.968 33.094L36.843 55.906C33.03 58.125 31.749 63.031 33.968 66.844C36.155 70.672 41.03 71.938 44.905 69.719L71.999 53.922V208H31.124C26.718 208 23.124 211.578 23.124 216S26.718 224 31.124 224ZM145.497 464H37.028L117.685 392.188C144.028 369.469 147.185 329.455 124.747 302.986C113.497 289.674 97.622 281.58 80.091 280.205C62.622 278.893 45.528 284.346 32.216 295.799L17.812 308.205C14.468 311.096 14.093 316.143 16.968 319.486C19.905 322.846 24.935 323.221 28.247 320.33L42.653 307.924C52.716 299.283 65.685 295.158 78.841 296.158C92.091 297.205 104.06 303.299 112.56 313.33C129.622 333.471 127.278 362.781 107.153 380.156L10.687 466.031C8.187 468.234 7.343 471.75 8.53 474.844C9.718 477.953 12.687 480 15.999 480H145.497C149.903 480 153.497 476.422 153.497 472S149.903 464 145.497 464ZM503.999 408H199.999C195.593 408 191.999 411.594 191.999 416S195.593 424 199.999 424H503.999C508.405 424 511.999 420.406 511.999 416S508.405 408 503.999 408ZM503.999 248H199.999C195.593 248 191.999 251.594 191.999 256S195.593 264 199.999 264H503.999C508.405 264 511.999 260.406 511.999 256S508.405 248 503.999 248Z"/></svg>
